public/logos/JJ.svg

<?xml version="1.0" encoding="UTF-8"?>
<svg xmlns="http://www.w3.org/2000/svg" xmlns:xlink="http://www.w3.org/1999/xlink" width="176pt" height="40.91pt" viewBox="0 0 176 40.91" version="1.1">
<defs>
<clipPath id="clip1">
  <path d="M 5 35 L 11 35 L 11 40.910156 L 5 40.910156 Z M 5 35 "/>
</clipPath>
</defs>
<g id="surface1">
<path style=" stroke:none;fill-rule:nonzero;fill:rgb(18.502808%,17.304993%,49.584961%);fill-opacity:1;" d="M 140.875 30.640625 L 146.171875 10.167969 L 152.03125 10.167969 C 152.03125 10.167969 153.515625 10.023438 154.277344 10.628906 C 155.042969 11.234375 155.261719 12.171875 155.261719 12.171875 L 158.441406 22.078125 L 162.597656 10.167969 L 168.265625 10.167969 C 168.265625 10.167969 169.671875 10.167969 170.402344 10.742188 C 171.136719 11.3125 171.355469 12.171875 171.355469 12.171875 L 176 30.644531 L 170.496094 30.644531 L 166.347656 14.898438 L 161.988281 26.902344 L 156.152344 26.902344 C 156.152344 26.902344 155.449219 26.96875 154.777344 26.515625 C 154.105469 26.0625 154.085938 25.644531 154.085938 25.644531 L 150.535156 14.898438 L 146.460938 30.644531 L 140.875 30.640625 "/>
<path style=" stroke:none;fill-rule:nonzero;fill:rgb(18.502808%,17.304993%,49.584961%);fill-opacity:1;" d="M 86.300781 10.164062 L 86.300781 14.25 L 96.132812 14.910156 L 96.132812 30.640625 L 101.808594 30.640625 L 101.808594 14.910156 L 111.640625 14.25 L 111.640625 10.164062 L 86.300781 10.164062 "/>
<path style=" stroke:none;fill-rule:nonzero;fill:rgb(18.502808%,17.304993%,49.584961%);fill-opacity:1;" d="M 73.441406 14.585938 L 77.207031 22.714844 L 69.621094 22.714844 Z M 69.96875 10.164062 L 59.730469 30.640625 L 66.023438 30.640625 L 67.8125 26.875 L 79.226562 26.875 L 80.972656 30.640625 L 87.230469 30.640625 L 77.519531 11.507812 C 77.519531 11.507812 77.203125 10.804688 76.652344 10.488281 C 76.101562 10.171875 75.523438 10.164062 75.523438 10.164062 L 69.96875 10.164062 "/>
<path style=" stroke:none;fill-rule:nonzero;fill:rgb(18.502808%,17.304993%,49.584961%);fill-opacity:1;" d="M 38.109375 10.164062 L 38.109375 30.640625 L 55.394531 30.640625 L 57.75 25.929688 L 44.03125 25.929688 L 44.03125 10.164062 L 38.109375 10.164062 "/>
<path style=" stroke:none;fill-rule:nonzero;fill:rgb(18.502808%,17.304993%,49.584961%);fill-opacity:1;" d="M 124.496094 14.585938 L 128.257812 22.714844 L 120.675781 22.714844 Z M 121.019531 10.164062 L 110.78125 30.640625 L 117.074219 30.640625 L 118.863281 26.875 L 130.277344 26.875 L 132.027344 30.640625 L 138.285156 30.640625 L 128.570312 11.507812 C 128.570312 11.507812 128.253906 10.804688 127.703125 10.488281 C 127.152344 10.171875 126.574219 10.164062 126.574219 10.164062 L 121.019531 10.164062 "/>
<path style=" stroke:none;fill-rule:nonzero;fill:rgb(92.504883%,7.302856%,30.702209%);fill-opacity:1;" d="M 2.925781 16.746094 L 7.46875 15.445312 C 7.46875 15.445312 7.421875 15.144531 7.257812 14.996094 C 7.097656 14.847656 6.804688 14.753906 6.804688 14.753906 L 0.488281 12.460938 C 0.488281 12.460938 0.289062 12.394531 0.140625 12.472656 C -0.00390625 12.554688 0 12.765625 0 12.765625 L 0 15.703125 C 0 15.703125 -0.015625 15.984375 0.390625 16.613281 C 0.796875 17.242188 1.761719 17.082031 1.761719 17.082031 L 2.925781 16.746094 "/>
<path style=" stroke:none;fill-rule:nonzero;fill:rgb(92.504883%,7.302856%,30.702209%);fill-opacity:1;" d="M 21.011719 9.660156 L 25.238281 7.292969 C 25.238281 7.292969 25.304688 6.882812 25.140625 6.734375 C 24.976562 6.585938 24.785156 6.539062 24.785156 6.539062 L 6.53125 0.0273438 C 6.53125 0.0273438 6.332031 -0.0429688 6.183594 0.0390625 C 6.039062 0.121094 6.042969 0.332031 6.042969 0.332031 L 6.042969 2.863281 C 6.042969 2.863281 6.042969 3.449219 6.449219 4.082031 C 6.855469 4.710938 7.515625 4.875 7.515625 4.875 L 21.011719 9.660156 "/>
<path style=" stroke:none;fill-rule:nonzero;fill:rgb(92.504883%,7.302856%,30.702209%);fill-opacity:1;" d="M 21.011719 17.03125 L 25.238281 14.839844 C 25.238281 14.839844 25.328125 14.285156 25.167969 14.136719 C 25.003906 13.988281 24.785156 13.910156 24.785156 13.910156 L 0.488281 5.085938 C 0.488281 5.085938 0.289062 5.015625 0.140625 5.097656 C -0.00390625 5.179688 0 5.390625 0 5.390625 L 0 7.921875 C 0 7.921875 -0.00390625 8.507812 0.40625 9.136719 C 0.8125 9.769531 1.472656 9.933594 1.472656 9.933594 L 21.011719 17.03125 "/>
<path style=" stroke:none;fill-rule:nonzero;fill:rgb(18.502808%,17.304993%,49.584961%);fill-opacity:1;" d="M 24.785156 6.539062 C 24.785156 6.539062 25.03125 6.578125 25.238281 6.78125 C 25.449219 6.984375 25.453125 7.234375 25.453125 7.234375 L 25.453125 10.585938 C 25.453125 10.585938 25.441406 11.042969 25.253906 11.453125 C 25.066406 11.867188 24.789062 11.964844 24.789062 11.964844 L 24.21875 12.171875 L 5.976562 18.796875 C 5.976562 18.796875 5.890625 18.824219 5.777344 18.824219 C 5.660156 18.824219 5.574219 18.796875 5.574219 18.796875 L 0.492188 16.949219 C 0.492188 16.949219 0.367188 16.921875 0.1875 16.640625 C -0.015625 16.328125 0 15.703125 0 15.703125 C 0 15.703125 0.03125 16.023438 0.214844 16.175781 C 0.394531 16.328125 0.875 16.160156 0.875 16.160156 L 24.21875 7.683594 C 24.21875 7.683594 25.144531 7.304688 25.144531 6.917969 C 25.144531 6.652344 24.785156 6.539062 24.785156 6.539062 "/>
<path style=" stroke:none;fill-rule:nonzero;fill:rgb(18.502808%,17.304993%,49.584961%);fill-opacity:1;" d="M 24.785156 13.910156 C 24.785156 13.910156 25.03125 13.945312 25.238281 14.148438 C 25.449219 14.351562 25.453125 14.601562 25.453125 14.601562 L 25.453125 17.953125 C 25.453125 17.953125 25.441406 18.414062 25.253906 18.824219 C 25.066406 19.234375 24.789062 19.332031 24.789062 19.332031 L 24.21875 19.542969 L 5.976562 26.167969 L 5.976562 21.675781 L 24.21875 15.050781 C 24.21875 15.050781 25.144531 14.671875 25.144531 14.289062 C 25.144531 14.023438 24.785156 13.910156 24.785156 13.910156 "/>
<path style=" stroke:none;fill-rule:nonzero;fill:rgb(18.502808%,17.304993%,49.584961%);fill-opacity:1;" d="M 15.730469 25.707031 C 15.902344 25.882812 15.902344 26.265625 15.902344 26.265625 L 15.902344 28.773438 C 15.902344 28.773438 15.894531 29.230469 15.707031 29.644531 C 15.519531 30.054688 15.242188 30.152344 15.242188 30.152344 L 14.671875 30.359375 L 5.976562 33.519531 L 5.976562 29.027344 L 14.671875 25.867188 C 14.671875 25.867188 15.554688 25.53125 15.730469 25.707031 "/>
<g clip-path="url(#clip1)" clip-rule="nonzero">
<path style=" stroke:none;fill-rule:nonzero;fill:rgb(18.502808%,17.304993%,49.584961%);fill-opacity:1;" d="M 10.121094 35.082031 C 10.296875 35.253906 10.296875 35.640625 10.296875 35.640625 L 10.296875 38.148438 C 10.296875 38.148438 10.285156 38.605469 10.097656 39.015625 C 9.910156 39.429688 9.636719 39.527344 9.636719 39.527344 L 9.0625 39.734375 L 5.976562 40.910156 L 5.976562 36.417969 L 9.0625 35.242188 C 9.0625 35.242188 9.945312 34.90625 10.121094 35.082031 "/>
</g>
</g>
</svg>

<svg xmlns="http://www.w3.org/2000/svg" width="176pt" height="54.547" viewBox="0 0 176 40.91"><defs><clipPath id="a"><path d="M5 35h6v5.91H5Zm0 0"/></clipPath></defs><path d="m140.875 30.64 5.297-20.472h5.86s1.484-.145 2.245.46c.766.606.985 1.544.985 1.544l3.18 9.906 4.156-11.91h5.668s1.406 0 2.136.574c.735.57.953 1.43.953 1.43L176 30.645h-5.504l-4.148-15.747-4.36 12.004h-5.836s-.703.067-1.375-.386-.691-.871-.691-.871l-3.55-10.747-4.075 15.747zM86.3 10.164v4.086l9.833.66v15.73h5.676V14.91l9.832-.66v-4.086zM73.441 14.586l3.766 8.129h-7.586Zm-3.472-4.422L59.73 30.641h6.293l1.79-3.766h11.414l1.746 3.766h6.257l-9.71-19.133s-.317-.703-.868-1.02c-.55-.316-1.129-.324-1.129-.324zM38.11 10.164v20.477h17.285l2.355-4.711H44.031V10.164zM124.496 14.586l3.762 8.129h-7.582Zm-3.476-4.422L110.78 30.641h6.293l1.79-3.766h11.413l1.75 3.766h6.258l-9.715-19.133s-.316-.703-.867-1.02c-.55-.316-1.129-.324-1.129-.324z" style="stroke:none;fill-rule:nonzero;fill:#2f2c7e;fill-opacity:1"/><path d="m2.926 16.746 4.543-1.3s-.047-.301-.211-.45c-.16-.148-.453-.242-.453-.242L.488 12.46s-.199-.066-.347.012c-.145.082-.141.293-.141.293v2.937s-.016.281.39.91c.407.63 1.372.469 1.372.469zM21.012 9.66l4.226-2.367s.067-.41-.097-.559c-.164-.148-.356-.195-.356-.195L6.531.027s-.199-.07-.347.012c-.145.082-.141.293-.141.293v2.531s0 .586.406 1.219a1.96 1.96 0 0 0 1.067.793zM21.012 17.031l4.226-2.191s.09-.555-.07-.703c-.164-.149-.383-.227-.383-.227L.488 5.086s-.199-.07-.347.012C-.004 5.18 0 5.39 0 5.39v2.53s-.004.587.406 1.216a1.96 1.96 0 0 0 1.067.797z" style="stroke:none;fill-rule:nonzero;fill:#ec134e;fill-opacity:1"/><path d="M24.785 6.54s.246.038.453.241a.7.7 0 0 1 .215.453v3.352s-.012.457-.2.867c-.187.414-.464.512-.464.512l-.57.207-18.242 6.625s-.086.027-.2.027c-.117 0-.203-.027-.203-.027L.492 16.949s-.125-.027-.304-.308c-.204-.313-.188-.938-.188-.938s.031.32.215.473c.18.152.66-.016.66-.016l23.344-8.476s.926-.38.926-.766c0-.266-.36-.379-.36-.379M24.785 13.91s.246.035.453.238a.7.7 0 0 1 .215.454v3.351s-.012.461-.2.871c-.187.41-.464.508-.464.508l-.57.211-18.242 6.625v-4.492l18.242-6.625s.926-.38.926-.762c0-.266-.36-.379-.36-.379M15.73 25.707c.172.176.172.559.172.559v2.507s-.007.457-.195.872c-.187.41-.465.507-.465.507l-.57.207-8.695 3.16v-4.492l8.695-3.16s.883-.336 1.058-.16" style="stroke:none;fill-rule:nonzero;fill:#2f2c7e;fill-opacity:1"/><g clip-path="url(#a)"><path d="M10.121 35.082c.176.172.176.559.176.559v2.507s-.012.457-.2.868c-.187.414-.46.511-.46.511l-.575.207-3.085 1.176v-4.492l3.085-1.176s.883-.336 1.06-.16" style="stroke:none;fill-rule:nonzero;fill:#2f2c7e;fill-opacity:1"/></g></svg>
